public/assets/trusts-llama/ecb-2.svg

<svg fill="none" height="10" viewBox="0 0 203 10" width="203" xmlns="http://www.w3.org/2000/svg"><g fill="#fff"><path d="m0 .961426v8.027184h5.94101v-1.48525h-3.9254v-1.94507h3.67725v-1.44997h-3.67725v-1.69692h3.85363v-1.449974z"/><path d="m17.0786.961914v4.561426c0 2.65198-1.8387 3.6067-4.031 3.6067-2.3337 0-4.031-1.0608-4.031-3.57135v-4.596776h2.0155v4.632146c-.0064.25546.0416.50936.1408.74485.0992.2355.2473.44721.4346.62109.1872.17388.4093.30596.6515.38747.2422.0815.499.11058.7533.0853.2698.02682.5423-.00539.7985-.0944.2562-.08902.49-.2327.6851-.42109s.3469-.41697.4449-.66988c.0979-.25292.1397-.52412.1223-.79479v-4.490696z"/><path d="m22.4181 4.2506h1.0608c.5658 0 1.0962-.24752 1.0962-.91935 0-.60112-.389-.91936-1.1669-.91936h-.9901zm1.5912-3.288469c.3296-.031821.6622.004318.9773.106179.315.10186.6058.26729.8544.48603.2486.21875.4496.48617.5907.78572.1411.29956.2193.62487.2296.95583.0022.43194-.1291.85402-.3759 1.20848-.2469.35445-.5972.62397-1.0031.77166.8486.42433 1.0608 1.4144 2.1923 3.74815h-2.1923c-.8487-1.73263-1.1669-3.28847-2.2631-3.28847h-.5657v3.28847h-2.0155v-8.062049z"/><path d="m34.0521 2.51778c-.3364-.02491-.6742.02121-.9915.13534-.3174.11414-.6072.29375-.8506.52717s-.435.51544-.5624.82772c-.1273.31229-.1876.64787-.1768.98495-.0167.33863.0395.67691.1648.99195s.3168.5995.5615.83416.537.41405.857.52603.6603.15394.998.12306c.3345.02427.6704-.02254.9855-.13738.3151-.11483.6024-.29508.8429-.52888.2405-.23381.4287-.51587.5524-.82765.1236-.31178.1799-.64621.1651-.98129.0148-.33508-.0415-.6695-.1651-.98128-.1237-.31178-.3119-.59384-.5524-.82765-.2405-.2338-.5278-.41405-.8429-.52888s-.651-.16165-.9855-.13737zm0 6.57693c-.578.04264-1.1587-.03151-1.7074-.21803-.5487-.18653-1.0542-.48161-1.4865-.86766-.4323-.38606-.7824-.85518-1.0295-1.37941-.2471-.52424-.3861-1.09285-.4088-1.67196.0223-.57924.1611-1.14806.408-1.67248.247-.52443.5971-.99372 1.0295-1.37986.4323-.38614.938-.68121 1.4869-.86759s1.1297-.260256 1.7078-.217215c.5762-.042812 1.1551.031453 1.7019.218325.5467.18686 1.05.48247 1.4795.869.4295.38654.7763.85601 1.0195 1.38014.2433.52412.3779 1.09206.3958 1.66959-.0184.57737-.1534 1.14504-.3968 1.66891s-.5903.99312-1.0196 1.37955c-.4294.38643-.9325.68207-1.479.86914s-1.1252.26181-1.7013.21955z"/><path d="m43.7753 4.28568h.9193c.9194 0 1.2376-.31824 1.2376-.91936 0-.7072-.3889-.91935-1.4851-.91935h-.7072zm1.5912-3.323834c.3346-.028334.6715.01255.9896.120104.3182.10756.6108.27948.8596.50506s.4484.49997.5865.80609c.1382.30613.2118.63741.2162.97322-.0005.33852-.0711.67328-.2074.98317-.1362.30989-.3352.5882-.5843.8174-.2492.22921-.5431.40433-.8632.51435-.3202.11002-.6596.15255-.997.12491h-1.5912v3.21774h-2.0155v-8.062044z"/><path d="m57.0354 8.98861h-5.9763v-8.027184h5.8704v1.449974h-3.8548v1.69692h3.6772v1.44997h-3.6772v1.94507h3.9607z"/><path d="m63.7183 2.87132-1.1669 3.14702h2.4752zm4.7382 6.11725h-2.1569l-.6719-1.59119h-3.6067l-.6011 1.59119h-2.1216l3.2531-8.062056h2.3338z"/><path d="m79.1354 8.98861h-1.6628l-4.4545-5.1625v5.1625h-2.0157v-8.027184h1.8381l4.2793 4.915574v-4.915574h2.0156z"/><path d="m94.9417 8.31703c-.962.53623-2.0457.81628-3.147.81328-3.1471 0-4.7029-2.05089-4.7029-4.13706 0-2.157 1.7326-4.172506 4.8443-4.172506 1.023-.022336 2.0343.221346 2.9348.707196v1.80335c-.84-.52421-1.8037-.81698-2.7934-.84863-.355-.04495-.7156-.01643-1.0591.08379-.3436.10023-.6629.27001-.9382.4988-.2752.2288-.5004.51174-.6617.83123-.1613.3195-.2552.66874-.2758 1.02605.0139.35465.1005.70267.2544 1.02247.154.3198.372.60456.6405.83664.2686.23207.5819.4065.9207.51248.3387.10598.6956.14124 1.0485.1036 1.0369-.04433 2.046-.34833 2.9349-.88411z"/><path d="m104.099 8.9891h-5.9393v-8.027186h5.8343v1.449976h-3.819v1.69691h3.678v1.44998h-3.678v1.94507h3.924z"/><path d="m115.379 8.9891h-1.662l-4.456-5.16251v5.16251h-2.015v-8.027186h1.839l4.278 4.915576v-4.915576h2.016z"/><path d="m126.093 2.41189h-2.935v6.57721h-2.016v-6.57721h-2.898v-1.449976h7.849z"/><path d="m130.902 4.2506h1.061c.566 0 1.096-.24752 1.096-.91935 0-.60112-.389-.91936-1.167-.91936h-.99zm1.591-3.288469c.33-.031821.662.004318.977.106179.316.10186.606.26729.855.48603.248.21875.45.48617.591.78572.141.29956.219.62487.229.95583.002.43194-.129.85402-.376 1.20848-.247.35445-.597.62397-1.003.77166.849.42433 1.061 1.4144 2.192 3.74815h-2.192c-.848-1.73263-1.167-3.28847-2.263-3.28847h-.566v3.28847h-2.015v-8.062049z"/><path d="m142.076 2.87157-1.167 3.14702h2.475zm4.703 6.11722h-2.157l-.672-1.59119h-3.607l-.601 1.59119h-2.121l3.253-8.062032h2.333z"/><path d="m155.442 8.9891h-6.117v-8.027186h1.98v6.541936h4.137z"/><path d="m165.059 7.50352h1.131c1.097 0 1.521-.28288 1.521-.99009 0-.60111-.53-.91935-1.238-.91935h-1.414zm0-3.3592h1.061c.127.01847.256.00944.38-.02648.123-.03591.237-.09786.334-.18167s.175-.18752.229-.30412c.054-.11659.082-.24336.082-.37171 0-.42433-.283-.84864-1.025-.84864h-1.061zm1.485-3.182406c1.91 0 2.652 1.131516 2.652 2.015516-.011.34229-.121.67412-.315.95615s-.465.50243-.781.63504c.484.08237.924.33343 1.241.70878.317.37534.491.85076.492 1.34212 0 .91936-.496 2.36911-2.865 2.36911h-3.925v-8.026716z"/><path d="m176.481 2.87156-1.167 3.14703h2.475zm4.703 6.11726h-2.157l-.672-1.5912h-3.571l-.601 1.5912h-2.122l3.253-8.062062h2.334z"/><path d="m191.862 8.9891h-1.662l-4.455-5.16251v5.16251h-2.016v-8.027186h1.839l4.314 4.915576v-4.915576h1.98z"/><path d="m199.428 4.71093 3.571 4.27817h-2.51l-3.182-3.78308v3.78308h-2.016v-8.027186h2.016v3.641976l2.546-3.641976h2.192z"/></g></svg>

<svg xmlns="http://www.w3.org/2000/svg" width="203" height="10" viewBox="0 0 203 10" fill="none">
  <path d="M0 0.961426V8.98861H5.94101V7.50336H2.01561V5.55829H5.69286V4.10832H2.01561V2.4114H5.86924V0.961426H0Z" fill="white"/>
  <path d="M17.0786 0.961914V5.52334C17.0786 8.17532 15.2399 9.13004 13.0476 9.13004C10.7139 9.13004 9.0166 8.06924 9.0166 5.55869V0.961914H11.0321V5.59406C11.0257 5.84952 11.0737 6.10342 11.1729 6.33891C11.2721 6.57441 11.4202 6.78612 11.6075 6.96C11.7947 7.13388 12.0168 7.26596 12.259 7.34747C12.5012 7.42897 12.758 7.45805 13.0123 7.43277C13.2821 7.45959 13.5546 7.42738 13.8108 7.33837C14.067 7.24935 14.3008 7.10567 14.4959 6.91728C14.691 6.72889 14.8428 6.50031 14.9408 6.2474C15.0387 5.99448 15.0805 5.72328 15.0631 5.45261V0.961914H17.0786Z" fill="white"/>
  <path d="M22.4181 4.2506H23.4789C24.0447 4.2506 24.5751 4.00308 24.5751 3.33125C24.5751 2.73013 24.1861 2.41189 23.4082 2.41189H22.4181V4.2506ZM24.0093 0.962131C24.3389 0.93031 24.6715 0.966449 24.9866 1.06831C25.3016 1.17017 25.5924 1.3356 25.841 1.55434C26.0896 1.77309 26.2906 2.04051 26.4317 2.34006C26.5728 2.63962 26.651 2.96493 26.6613 3.29589C26.6635 3.72783 26.5322 4.14991 26.2854 4.50437C26.0385 4.85882 25.6882 5.12834 25.2823 5.27603C26.1309 5.70036 26.3431 6.69043 27.4746 9.02418H25.2823C24.4336 7.29155 24.1154 5.73571 23.0192 5.73571H22.4535V9.02418H20.438V0.962131H24.0093Z" fill="white"/>
  <path d="M34.0521 2.51778C33.7157 2.49287 33.3779 2.53899 33.0606 2.65312C32.7432 2.76726 32.4534 2.94687 32.21 3.18029C31.9666 3.41371 31.775 3.69573 31.6476 4.00801C31.5203 4.3203 31.46 4.65588 31.4708 4.99296C31.4541 5.33159 31.5103 5.66987 31.6356 5.98491C31.7609 6.29995 31.9524 6.58441 32.1971 6.81907C32.4418 7.05373 32.7341 7.23312 33.0541 7.3451C33.3741 7.45708 33.7144 7.49904 34.0521 7.46816C34.3866 7.49243 34.7225 7.44562 35.0376 7.33078C35.3527 7.21595 35.64 7.0357 35.8805 6.8019C36.121 6.56809 36.3092 6.28603 36.4329 5.97425C36.5565 5.66247 36.6128 5.32804 36.598 4.99296C36.6128 4.65788 36.5565 4.32346 36.4329 4.01168C36.3092 3.6999 36.121 3.41784 35.8805 3.18403C35.64 2.95023 35.3527 2.76998 35.0376 2.65515C34.7225 2.54032 34.3866 2.4935 34.0521 2.51778ZM34.0521 9.09471C33.4741 9.13735 32.8934 9.0632 32.3447 8.87668C31.796 8.69015 31.2905 8.39507 30.8582 8.00902C30.4259 7.62296 30.0758 7.15384 29.8287 6.62961C29.5816 6.10537 29.4426 5.53676 29.4199 4.95765C29.4422 4.37841 29.581 3.80959 29.8279 3.28517C30.0749 2.76074 30.425 2.29145 30.8574 1.90531C31.2897 1.51917 31.7954 1.2241 32.3443 1.03772C32.8932 0.85134 33.474 0.777464 34.0521 0.820505C34.6283 0.777693 35.2072 0.851958 35.754 1.03883C36.3007 1.22569 36.804 1.5213 37.2335 1.90783C37.663 2.29437 38.0098 2.76384 38.253 3.28797C38.4963 3.81209 38.6309 4.38003 38.6488 4.95756C38.6304 5.53493 38.4954 6.1026 38.252 6.62647C38.0086 7.15034 37.6617 7.61959 37.2324 8.00602C36.803 8.39245 36.2999 8.68809 35.7534 8.87516C35.2069 9.06223 34.6282 9.13697 34.0521 9.09471Z" fill="white"/>
  <path d="M43.7753 4.28568H44.6946C45.614 4.28568 45.9322 3.96744 45.9322 3.36632C45.9322 2.65912 45.5433 2.44697 44.4471 2.44697H43.7399L43.7753 4.28568ZM45.3665 0.961846C45.7011 0.933512 46.038 0.974396 46.3561 1.08195C46.6743 1.18951 46.9669 1.36143 47.2157 1.58701C47.4645 1.81259 47.6641 2.08698 47.8022 2.3931C47.9404 2.69923 48.014 3.03051 48.0184 3.36632C48.0179 3.70484 47.9473 4.0396 47.811 4.34949C47.6748 4.65938 47.4758 4.93769 47.2267 5.16689C46.9775 5.3961 46.6836 5.57122 46.3635 5.68124C46.0433 5.79126 45.7039 5.83379 45.3665 5.80615H43.7753V9.02389H41.7598V0.961846H45.3665Z" fill="white"/>
  <path d="M57.0354 8.98861H51.0591V0.961426H56.9295V2.4114H53.0747V4.10832H56.7519V5.55829H53.0747V7.50336H57.0354V8.98861Z" fill="white"/>
  <path d="M63.7183 2.87132L62.5514 6.01834H65.0266L63.7183 2.87132ZM68.4565 8.98857H66.2996L65.6277 7.39738H62.021L61.4199 8.98857H59.2983L62.5514 0.926514H64.8852L68.4565 8.98857Z" fill="white"/>
  <path d="M79.1354 8.98861H77.4726L73.0181 3.82611V8.98861H71.0024V0.961426H72.8405L77.1198 5.877V0.961426H79.1354V8.98861Z" fill="white"/>
  <path d="M94.9417 8.31703C93.9797 8.85326 92.896 9.13331 91.7947 9.13031C88.6476 9.13031 87.0918 7.07942 87.0918 4.99325C87.0918 2.83625 88.8244 0.820744 91.9361 0.820744C92.9591 0.798408 93.9704 1.04209 94.8709 1.52794V3.33129C94.0309 2.80708 93.0672 2.51431 92.0775 2.48266C91.7225 2.43771 91.3619 2.46623 91.0184 2.56645C90.6748 2.66668 90.3555 2.83646 90.0802 3.06525C89.805 3.29405 89.5798 3.57699 89.4185 3.89648C89.2572 4.21598 89.1633 4.56522 89.1427 4.92253C89.1566 5.27718 89.2432 5.6252 89.3971 5.945C89.5511 6.2648 89.7691 6.54956 90.0376 6.78164C90.3062 7.01371 90.6195 7.18814 90.9583 7.29412C91.297 7.4001 91.6539 7.43536 92.0068 7.39772C93.0437 7.35339 94.0528 7.04939 94.9417 6.51361V8.31703Z" fill="white"/>
  <path d="M104.099 8.9891H98.1597V0.961914H103.994V2.41189H100.175V4.1088H103.853V5.55878H100.175V7.50385H104.099V8.9891Z" fill="white"/>
  <path d="M115.379 8.9891H113.717L109.261 3.82659V8.9891H107.246V0.961914H109.085L113.363 5.87749V0.961914H115.379V8.9891Z" fill="white"/>
  <path d="M126.093 2.41189H123.158V8.9891H121.142V2.41189H118.244V0.961914H126.093V2.41189Z" fill="white"/>
  <path d="M130.902 4.2506H131.963C132.529 4.2506 133.059 4.00308 133.059 3.33125C133.059 2.73013 132.67 2.41189 131.892 2.41189H130.902L130.902 4.2506ZM132.493 0.962131C132.823 0.93031 133.155 0.966449 133.47 1.06831C133.786 1.17017 134.076 1.3356 134.325 1.55434C134.573 1.77309 134.775 2.04051 134.916 2.34006C135.057 2.63962 135.135 2.96493 135.145 3.29589C135.147 3.72783 135.016 4.14991 134.769 4.50437C134.522 4.85882 134.172 5.12834 133.766 5.27603C134.615 5.70036 134.827 6.69043 135.958 9.02418H133.766C132.918 7.29155 132.599 5.73571 131.503 5.73571H130.937V9.02418H128.922V0.962131H132.493Z" fill="white"/>
  <path d="M142.076 2.87157L140.909 6.01859H143.384L142.076 2.87157ZM146.779 8.98879H144.622L143.95 7.3976H140.343L139.742 8.98879H137.621L140.874 0.926758H143.207L146.779 8.98879Z" fill="white"/>
  <path d="M155.442 8.9891H149.325V0.961914H151.305V7.50385H155.442V8.9891Z" fill="white"/>
  <path d="M165.059 7.50352H166.19C167.287 7.50352 167.711 7.22064 167.711 6.51343C167.711 5.91232 167.181 5.59408 166.473 5.59408H165.059V7.50352ZM165.059 4.14432H166.12C166.247 4.16279 166.376 4.15376 166.5 4.11784C166.623 4.08193 166.737 4.01998 166.834 3.93617C166.931 3.85236 167.009 3.74865 167.063 3.63205C167.117 3.51546 167.145 3.38869 167.145 3.26034C167.145 2.83601 166.862 2.4117 166.12 2.4117H165.059V4.14432ZM166.544 0.961914C168.454 0.961914 169.196 2.09343 169.196 2.97743C169.185 3.31972 169.075 3.65155 168.881 3.93358C168.687 4.21561 168.416 4.43601 168.1 4.56862C168.584 4.65099 169.024 4.90205 169.341 5.2774C169.658 5.65274 169.832 6.12816 169.833 6.61952C169.833 7.53888 169.337 8.98863 166.968 8.98863H163.043V0.961914H166.544Z" fill="white"/>
  <path d="M176.481 2.87156L175.314 6.01859H177.789L176.481 2.87156ZM181.184 8.98882H179.027L178.355 7.39762H174.784L174.183 8.98882H172.061L175.314 0.926758H177.648L181.184 8.98882Z" fill="white"/>
  <path d="M191.862 8.9891H190.2L185.745 3.82659V8.9891H183.729V0.961914H185.568L189.882 5.87749V0.961914H191.862V8.9891Z" fill="white"/>
  <path d="M199.428 4.71093L202.999 8.9891H200.489L197.307 5.20602V8.9891H195.291V0.961914H197.307V4.60389L199.853 0.961914H202.045L199.428 4.71093Z" fill="white"/>
</svg>
